!!!OTL: Die Unbestechliche Es reit' ein Reiter wohlgemut,
!!!ARE: Europa, Osteuropa, Tschechoslowakei, Maehren, Dt. Proben, Kremnitz
!!!ARD: Europa%Osteuropa%Slovensko@Maehren#Dt. Proben:Kremnitz!
!!!ARL: 48.70/18.91!
!!!YOR: 7, S. 29
!!    1943 gedruckt in Kassel
!!!SCT: Q0144
!!!YEM: Copyright 1995, estate of Helmut Schaffrath.
**kern
*ICvox
*Ivox
*M2/4
*k[f#]
*G:
{4d
=1
4g
4b
=2
4.a
8dd
=3
8cc
8b
8a}
{8g
=4
8g
8b
8a
8g
=5
8f#
8e
8d}
{16d
16d
=6
8g
8b
8a
8g
=7
4cc
8cc
8a
=8
4g}
==
!!!AGN: Ballade, Liebes - Handel
!!!ONB: ESAC (Essen Associative Code) Database: BALLADE
!!!AMT: simple duple
!!!AIN: vox
!!!EED: Helmut Schaffrath
!!!EEV: 1.0
*-
!!!title: @{OTL} [@{SCT}]
